icons/soundcloud-fill.svg

<svg xmlns="http://www.w3.org/2000/svg" width="24" height="24" fill="none"><g clip-path="url(#a)"><g><path fill="#121212" d="M10.464 8.59594C10.729 8.59594 10.944 10.7019 10.944 13.2999L10.943 13.6509C10.924 16.0849 10.717 18.0039 10.464 18.0039C10.208 18.0039 9.999 16.0389 9.984 13.5639V13.2119C9.989 10.6539 10.202 8.59594 10.464 8.59594ZM8.8 9.55594C9.059 9.55594 9.27 11.3559 9.28 13.6099V13.9499C9.27 16.2039 9.059 18.0039 8.8 18.0039C8.545 18.0039 8.336 16.2489 8.32 14.0339V13.6939L8.322 13.3539C8.347 11.2209 8.552 9.55594 8.8 9.55594ZM7.136 9.55594C7.391 9.55594 7.6 11.3109 7.616 13.5259V13.8659L7.614 14.2059C7.589 16.3389 7.384 18.0039 7.136 18.0039C6.877 18.0039 6.666 16.2039 6.656 13.9499V13.6099C6.666 11.3559 6.877 9.55594 7.136 9.55594ZM5.472 10.1319C5.737 10.1319 5.952 11.8939 5.952 14.0679L5.95 14.4029C5.93 16.4199 5.723 18.0039 5.472 18.0039C5.21 18.0039 4.998 16.2869 4.992 14.1519V13.9839C4.998 11.8489 5.21 10.1319 5.472 10.1319ZM3.808 11.8599C4.073 11.8599 4.288 13.2349 4.288 14.9319V15.0899C4.275 16.7129 4.065 18.0039 3.808 18.0039C3.543 18.0039 3.328 16.6289 3.328 14.9319V14.7739C3.341 13.1509 3.551 11.8599 3.808 11.8599ZM14.592 7.05994C17.172 7.05994 19.312 8.94594 19.71 11.4139C20.1694 11.2821 20.6517 11.2498 21.1247 11.3192C21.5976 11.3886 22.0503 11.5581 22.4524 11.8164C22.8546 12.0747 23.1971 12.4158 23.4569 12.817C23.7168 13.2182 23.888 13.6702 23.9593 14.1429C24.0305 14.6155 24.0001 15.0979 23.87 15.5579C23.7399 16.0178 23.5132 16.4448 23.205 16.8101C22.8968 17.1755 22.5142 17.4708 22.0827 17.6765C21.6513 17.8822 21.1809 17.9935 20.703 18.0029L20.64 18.0039H12.48C12.2763 18.0039 12.081 17.923 11.9369 17.779C11.7929 17.635 11.712 17.4396 11.712 17.2359V7.93294C12.5639 7.36224 13.5666 7.05832 14.592 7.05994ZM2.144 11.6679C2.409 11.6679 2.624 12.9999 2.624 14.6439V14.7999C2.61 16.3699 2.401 17.6199 2.144 17.6199C1.884 17.6199 1.671 16.3299 1.664 14.7219V14.6439C1.664 12.9999 1.879 11.6679 2.144 11.6679ZM0.48 12.6279C0.745 12.6279 0.96 13.5739 0.96 14.7399V14.8709C0.944 15.9759 0.735 16.8519 0.48 16.8519C0.215 16.8519 0 15.9059 0 14.7399V14.6089C0.016 13.5039 0.225 12.6279 0.48 12.6279Z"/></g></g><defs><clipPath id="a"><rect width="24" height="24" fill="white"/></clipPath></defs></svg>

<svg width="24" height="24" fill="none" xmlns="http://www.w3.org/2000/svg"><g clip-path="url(#a)"><path d="M10.464 8.596c.265 0 .48 2.106.48 4.704l-.001.35c-.019 2.435-.226 4.354-.479 4.354-.256 0-.465-1.965-.48-4.44v-.352c.005-2.558.218-4.616.48-4.616Zm-1.664.96c.259 0 .47 1.8.48 4.054v.34c-.01 2.254-.221 4.054-.48 4.054-.255 0-.464-1.755-.48-3.97v-.34l.002-.34c.025-2.133.23-3.798.478-3.798Zm-1.664 0c.255 0 .464 1.755.48 3.97v.34l-.002.34c-.025 2.133-.23 3.798-.478 3.798-.259 0-.47-1.8-.48-4.054v-.34c.01-2.254.221-4.054.48-4.054Zm-1.664.576c.265 0 .48 1.762.48 3.936l-.002.335c-.02 2.017-.227 3.6-.478 3.6-.262 0-.474-1.716-.48-3.851v-.168c.006-2.135.218-3.852.48-3.852ZM3.808 11.86c.265 0 .48 1.375.48 3.072v.158c-.013 1.623-.223 2.914-.48 2.914-.265 0-.48-1.375-.48-3.072v-.158c.013-1.623.223-2.914.48-2.914Zm10.784-4.8c2.58 0 4.72 1.886 5.118 4.354a3.36 3.36 0 1 1 .993 6.589H12.48a.768.768 0 0 1-.768-.767V7.933a5.16 5.16 0 0 1 2.88-.873ZM2.144 11.668c.265 0 .48 1.332.48 2.976v.156c-.014 1.57-.223 2.82-.48 2.82-.26 0-.473-1.29-.48-2.898v-.078c0-1.644.215-2.976.48-2.976Zm-1.664.96c.265 0 .48.946.48 2.112v.13c-.016 1.106-.225 1.982-.48 1.982-.265 0-.48-.946-.48-2.112v-.131c.016-1.105.225-1.981.48-1.981Z" /></g><defs><clipPath id="a"><path fill="#fff" d="M0 0h24v24H0z"/></clipPath></defs></svg>
